X: 78
T:Lord Howe's New Minuet. JBi.77
M:3/4
L:1/8
Q:120
S:James Biggins MS,Leeds,1779
R:Minuet
O:England
A:Yorkshire
Z:vmp.Chris Partington
K:G
G2GGGG|G2dBc2|D2DDDD|D2c>Bc2|!
BdBGG2|ABc4|BdBGG2|ABc4|((3edc) B2A2G4||!
d2dddd|d2afg2|A2AAAA|A2gfg2|fafdd2|!
ef"tr"g4|fgfdd2|ef"tr"g4|((3bag) f2e2|d6||!
BGg2fe|dcB2c2|A2agfe|dcB4|BdBGG2|!
ABc4|BdBGG2|ABc4|g2((3edc) B2|A2G4||
